packages/katcn/src/icons/svg/palette.svg

<svg width="24" height="25" viewBox="0 0 24 25" fill="none" xmlns="http://www.w3.org/2000/svg">
<path d="M21.7 9.91201C20.7 6.01201 17.5 3.01201 13.6 2.41201C10.7 1.91201 7.8 2.81201 5.6 4.71201C3.3 6.61201 2 9.51201 2 12.512C2 16.912 4.8 20.812 8.9 22.212C9.2 22.312 9.5 22.412 9.9 22.412C10.5 22.412 11.2 22.212 11.7 21.812C12.5 21.212 13 20.212 13 19.212C13 17.812 14.1 16.912 15.6 16.912H17.7C20.1 16.912 22 15.012 22 12.612C22 11.612 21.9 10.812 21.7 9.91201ZM17.7 14.812H15.6C13 14.812 11 16.712 11 19.112C11 19.512 10.8 19.812 10.5 20.112C10.3 20.212 10 20.412 9.5 20.312C6.2 19.212 4 16.012 4 12.512C4 10.112 5 7.81201 6.9 6.21201C8.3 5.01201 10.1 4.31201 12 4.31201C12.4 4.31201 12.9 4.31201 13.3 4.41201C16.4 4.91201 19 7.31201 19.8 10.412C20 11.112 20.1 11.812 20.1 12.512C20 13.812 19 14.812 17.7 14.812Z" fill="black"/>
<path d="M8.47962 14.5903C9.24981 14.1571 9.52303 13.1816 9.08986 12.4114C8.65669 11.6412 7.68117 11.368 6.91098 11.8012C6.14078 12.2343 5.86757 13.2098 6.30074 13.98C6.73391 14.7502 7.70942 15.0234 8.47962 14.5903Z" fill="black"/>
<path d="M10.6756 9.59083C11.4458 9.15766 11.719 8.18214 11.2859 7.41195C10.8527 6.64175 9.87719 6.36854 9.10699 6.80171C8.3368 7.23488 8.06358 8.21039 8.49675 8.98059C8.92992 9.75078 9.90544 10.024 10.6756 9.59083Z" fill="black"/>
<path d="M16.0702 10.2965C16.8404 9.8633 17.1136 8.88779 16.6805 8.11759C16.2473 7.3474 15.2718 7.07418 14.5016 7.50735C13.7314 7.94052 13.4582 8.91604 13.8913 9.68623C14.3245 10.4564 15.3 10.7296 16.0702 10.2965Z" fill="black"/>
</svg>

<svg xmlns="http://www.w3.org/2000/svg" fill="none" viewBox="0 0 24 25"><path fill="#000" d="M21.7 9.912c-1-3.9-4.2-6.9-8.1-7.5-2.9-.5-5.8.4-8 2.3-2.3 1.9-3.6 4.8-3.6 7.8 0 4.4 2.8 8.3 6.9 9.7.3.1.6.2 1 .2.6 0 1.3-.2 1.8-.6.8-.6 1.3-1.6 1.3-2.6 0-1.4 1.1-2.3 2.6-2.3h2.1c2.4 0 4.3-1.9 4.3-4.3 0-1-.1-1.8-.3-2.7m-4 4.9h-2.1c-2.6 0-4.6 1.9-4.6 4.3 0 .4-.2.7-.5 1-.2.1-.5.3-1 .2-3.3-1.1-5.5-4.3-5.5-7.8 0-2.4 1-4.7 2.9-6.3 1.4-1.2 3.2-1.9 5.1-1.9.4 0 .9 0 1.3.1 3.1.5 5.7 2.9 6.5 6q.3 1.05.3 2.1c-.1 1.3-1.1 2.3-2.4 2.3"/><path fill="#000" d="M8.48 14.59a1.6 1.6 0 1 0-1.57-2.789 1.6 1.6 0 0 0 1.57 2.79m2.196-5.001a1.6 1.6 0 1 0-1.57-2.788 1.6 1.6 0 0 0 1.57 2.789m5.394.706a1.6 1.6 0 1 0-1.569-2.79 1.6 1.6 0 0 0 1.57 2.79"/></svg>
